src/dsmComponents/Icons/people-1-24px.svg

<?xml version="1.0" encoding="UTF-8"?>
<svg width="24px" height="15px" viewBox="0 0 24 15" version="1.1" xmlns="http://www.w3.org/2000/svg" xmlns:xlink="http://www.w3.org/1999/xlink">
    <!-- Generator: Sketch 59.1 (86144) - https://sketch.com -->
    <title>people-1-24px</title>
    <desc>Created with Sketch.</desc>
    <defs>
        <path d="M17.25,9 C19.9275,9 21.8085,10.062 22.893,10.923 C23.6025,11.4855 24,12.348 24,13.254 L24,13.254 L24,15 L16.5,15 L16.5,13.254 C16.5,11.754 15.9375,10.3635 14.9715,9.2835 C15.6555,9.1125 16.4085,9 17.25,9 Z M6.75,9 C9.4275,9 11.3085,10.062 12.393,10.923 C13.1025,11.4855 13.5,12.348 13.5,13.254 L13.5,13.254 L13.5,15 L0,15 L0,13.254 C0,12.348 0.3975,11.4855 1.107,10.923 C2.1915,10.062 4.0725,9 6.75,9 Z M6.75,0 C8.82106781,0 10.5,1.67893219 10.5,3.75 C10.5,5.82106781 8.82106781,7.5 6.75,7.5 C4.67893219,7.5 3,5.82106781 3,3.75 C3,1.67893219 4.67893219,0 6.75,0 Z M17.25,0 C19.3210678,0 21,1.67893219 21,3.75 C21,5.82106781 19.3210678,7.5 17.25,7.5 C15.1789322,7.5 13.5,5.82106781 13.5,3.75 C13.5,1.67893219 15.1789322,0 17.25,0 Z" id="path-1"></path>
    </defs>
    <g id="Final" stroke="none" stroke-width="1" fill="none" fill-rule="evenodd">
        <g id="All-Nucleo-Icons" transform="translate(-608.000000, -5160.000000)">
            <g id="Solo/Nucleo/24px/people-1" transform="translate(608.000000, 5155.000000)">
                <g id="multiple" transform="translate(0.000000, 5.000000)">
                    <g id="Colour/Default-Colour">
                        <mask id="mask-2" fill="white">
                            <use xlink:href="#path-1"></use>
                        </mask>
                        <g id="Mask" fill-rule="nonzero"></g>
                        <g id="colour/neutral/chia" mask="url(#mask-2)" fill="#737373">
                            <g transform="translate(-20.000000, -25.000000)" id="Colour">
                                <rect x="0" y="0" width="64" height="64"></rect>
                            </g>
                        </g>
                    </g>
                </g>
            </g>
        </g>
    </g>
</svg>

<svg width="24" height="15" xmlns="http://www.w3.org/2000/svg" xmlns:xlink="http://www.w3.org/1999/xlink"><defs><path d="M17.25 9c2.677 0 4.558 1.062 5.643 1.923A2.964 2.964 0 0124 13.254V15h-7.5v-1.746c0-1.5-.563-2.89-1.528-3.97A9.309 9.309 0 0117.25 9zM6.75 9c2.678 0 4.559 1.062 5.643 1.923a2.964 2.964 0 011.107 2.331V15H0v-1.746c0-.906.398-1.768 1.107-2.331C2.192 10.062 4.072 9 6.75 9zm0-9a3.75 3.75 0 110 7.5 3.75 3.75 0 010-7.5zm10.5 0a3.75 3.75 0 110 7.5 3.75 3.75 0 010-7.5z" id="people-1-24px_svg__a"/></defs><use fill="#737373" xlink:href="#people-1-24px_svg__a" fill-rule="evenodd"/></svg>
